gruvbox_icons/symbolic/categories/emoji-body-symbolic.svg

<?xml version="1.0" encoding="UTF-8"?>
<svg height="16px" viewBox="0 0 16 16" width="16px" xmlns="http://www.w3.org/2000/svg">
    <path d="m 1 7 v 8 h 11 c 0.4375 0 0.875 -0.375 1 -1 l 1 -5.96875 v -2.03125 c 0 -0.535156 -0.40625 -1 -1 -1 h -3.898438 l 0.898438 -3.5 c 0.226562 -0.839844 -0.433594 -1.5 -1 -1.5 h -1 l -4.042969 7 z m 0 0" fill="#2e3436"/>
</svg>

<svg xmlns="http://www.w3.org/2000/svg" width="16" height="16" version="1.1">
 <path style="fill:#cdd3e0" d="M 1,7 V 15 H 12 C 12.439,15 12.875,14.625 13,14 L 14,8.031 V 6 C 14,5.465 13.594,5 13,5 H 9.1 L 10,1.5 C 10.225,0.66 9.566,0 9,0 H 8 L 3.959,7 Z"/>
</svg>
